!!!COM: Music21
!!!OTL: mazurka_Francie-Byrnes
!!!OMV: mazurka_Francie-Byrnes
**kern
*clefG2
*k[f#c#]
*D:
*M3/4
=1
16a
=
8.bL
16cc#Jk
4dd
4a
=
4cc#
[4b
8.bL]
16bJk
=
8.cc#L
16ddJk
4ee
4gg
=
4ff#
[4dd
8.ddL]
16aJk
=
8.bL
16cc#Jk
4dd
4a
=
4cc#
[4b
8.bL]
16bJk
=
8.cc#L
16ddJk
4ee
4gg
!!linebreak:original
=
4ff#
[4dd
8.dd]
16ryy
=||
*M3/4
16a
=
8.bL
16cc#Jk
4dd
4a
=
4cc#
[4b
8.bL]
16bJk
=
8.cc#L
16ddJk
4ee
4gg
=
4ff#
[4dd
8.ddL]
16aJk
=
8.bL
16cc#Jk
4dd
4a
=
4cc#
[4b
8.bL]
16bJk
!!linebreak:original
=
8.cc#L
16ddJk
4ee
4gg
=
4ff#
[4dd
8.dd]
16ryy
=||
16ee
2ryy
8.ryy
=
8.ff#L
16aaJk
8.eeL
16dd#XJk
8.eeL
16cc#Jk
=
8.ddL
16bJk
8.aL
16g#XJk
8.aL
16bJk
=
8.cc#L
16ddJk
4ee
4ee
=
4aa
[4ff#
8.ff#L]
16eeJk
!!linebreak:original
=
8.ddL
16ff#Jk
8.eeL
16dd#XJk
8.eeL
16cc#Jk
=
8.ddL
16bJk
8.aL
16g#XJk
8.aL
16bJk
=
8.cc#L
16ddJk
4ee
4gg
=
4ff#
[4dd
8.dd]
16ryy
=||
16ee
2ryy
8.ryy
=
8.ff#L
16aaJk
8.eeL
16dd#XJk
8.eeL
16cc#Jk
!!linebreak:original
=
8.ddL
16bJk
8.aL
16g#XJk
8.aL
16bJk
=
8.cc#L
16ddJk
4ee
4ee
=
4aa
[4ff#
8.ff#L]
16eeJk
=
8.ddL
16ff#Jk
8.eeL
16dd#XJk
8.eeL
16cc#Jk
=
8.ddL
16bJk
8.aL
16g#XJk
8.aL
16bJk
=
8.cc#L
16ddJk
4ee
4gg
!!linebreak:original
=
4ff#
[4dd
8.dd]
16ryy
=||
*-
